public/images/prizes/best-design.svg

<svg fill="none" height="156" viewBox="0 0 136 156" width="136" xmlns="http://www.w3.org/2000/svg"><circle cx="68" cy="78" fill="#06be5a" r="51"/><path d="m43.5 19.5956c-24.0241 0-43.5 16.6943-43.5 37.2843 0 2.5762.3045 5.0919.886917 7.5207 4.299253 7.3974 7.274163 2.7284 20.863083-4.0673 13.8403-6.9213 0 9.6667-4.8333 19.3334-1.4863 2.9725-.6815 5.4882 1.3533 7.5496 7.1195 4.3597 15.8147 6.9504 25.23 6.9504 24.0241 0 43.5-16.6919 43.5-37.2868 0-20.59-19.4759-37.2843-43.5-37.2843zm6.8851 59.0802c-.9546 3.2529-5.945 4.6497-11.1481 3.12-5.2031-1.5274-8.6468-5.3989-7.6922-8.6541.9545-3.2529 5.945-4.6497 11.148-3.1175 5.2031 1.5249 8.6469 5.3964 7.6923 8.6516z" fill="#d99e82"/><path d="m24.167 45.8333c4.0041 0 7.25-3.2459 7.25-7.25 0-4.004-3.2459-7.25-7.25-7.25s-7.25 3.246-7.25 7.25c0 4.0041 3.2459 7.25 7.25 7.25z" fill="#5c913b"/><path d="m48.333 41c4.0041 0 7.25-3.2459 7.25-7.25s-3.2459-7.25-7.25-7.25-7.25 3.2459-7.25 7.25 3.2459 7.25 7.25 7.25z" fill="#269"/><path d="m70.083 55.5c4.0041 0 7.25-3.2459 7.25-7.25s-3.2459-7.25-7.25-7.25-7.25 3.2459-7.25 7.25 3.2459 7.25 7.25 7.25z" fill="#dd2e44"/><path d="m67.667 77.25c4.0041 0 7.25-3.2459 7.25-7.25s-3.2459-7.25-7.25-7.25-7.25 3.2459-7.25 7.25 3.2459 7.25 7.25 7.25z" fill="#ffcc4d"/></svg>

<svg width="136" height="156" viewBox="0 0 136 156" fill="none" xmlns="http://www.w3.org/2000/svg">
<circle cx="68" cy="78" r="51" fill="#06BE5A"/>
<path d="M43.5 19.5956C19.4759 19.5956 0 36.2899 0 56.8799C0 59.4561 0.3045 61.9718 0.886917 64.4006C5.18617 71.798 8.16108 67.129 21.75 60.3333C35.5903 53.412 21.75 70 16.9167 79.6667C15.4304 82.6392 16.2352 85.1549 18.27 87.2163C25.3895 91.576 34.0847 94.1667 43.5 94.1667C67.5241 94.1667 87 77.4748 87 56.8799C87 36.2899 67.5241 19.5956 43.5 19.5956V19.5956ZM50.3851 78.6758C49.4305 81.9287 44.4401 83.3255 39.237 81.7958C34.0339 80.2684 30.5902 76.3969 31.5448 73.1417C32.4993 69.8888 37.4898 68.492 42.6928 70.0242C47.8959 71.5491 51.3397 75.4206 50.3851 78.6758V78.6758Z" fill="#D99E82"/>
<path d="M24.167 45.8333C28.1711 45.8333 31.417 42.5874 31.417 38.5833C31.417 34.5793 28.1711 31.3333 24.167 31.3333C20.1629 31.3333 16.917 34.5793 16.917 38.5833C16.917 42.5874 20.1629 45.8333 24.167 45.8333Z" fill="#5C913B"/>
<path d="M48.333 41C52.3371 41 55.583 37.7541 55.583 33.75C55.583 29.7459 52.3371 26.5 48.333 26.5C44.3289 26.5 41.083 29.7459 41.083 33.75C41.083 37.7541 44.3289 41 48.333 41Z" fill="#226699"/>
<path d="M70.083 55.5C74.0871 55.5 77.333 52.2541 77.333 48.25C77.333 44.2459 74.0871 41 70.083 41C66.0789 41 62.833 44.2459 62.833 48.25C62.833 52.2541 66.0789 55.5 70.083 55.5Z" fill="#DD2E44"/>
<path d="M67.667 77.25C71.6711 77.25 74.917 74.0041 74.917 70C74.917 65.9959 71.6711 62.75 67.667 62.75C63.6629 62.75 60.417 65.9959 60.417 70C60.417 74.0041 63.6629 77.25 67.667 77.25Z" fill="#FFCC4D"/>
</svg>
